svgs/sharp-solid/hashtag.svg

<svg xmlns="http://www.w3.org/2000/svg" viewBox="0 0 448 512"><!--! Font Awesome Pro 6.6.0 by @fontawesome - https://fontawesome.com License - https://fontawesome.com/license (Commercial License) Copyright 2024 Fonticons, Inc. --><path d="M308.9 32l64.9 0-16 96 74.2 0 12.9 0-10.7 64-2.2 0-84.9 0L325.8 320l74.2 0 12.9 0-10.7 64-2.2 0-84.9 0-16 96-64.9 0 16-96-95.1 0-16 96-64.9 0 16-96L16 384 3.1 384l10.7-64 2.2 0 84.9 0 21.3-128L48 192l-12.9 0 10.7-64 2.2 0 84.9 0 16-96 64.9 0-16 96 95.1 0 16-96zM165.8 320l95.1 0 21.3-128-95.1 0L165.8 320z"/></svg>

<svg xmlns="http://www.w3.org/2000/svg" viewBox="0 0 448 512"><!--! Font Awesome Pro 6.5.2 by @fontawesome - https://fontawesome.com License - https://fontawesome.com/license (Commercial License) Copyright 2024 Fonticons, Inc. --><path d="M308.9 32h64.9l-16 96H432h12.9l-10.7 64H432 347.1L325.8 320H400h12.9l-10.7 64H400 315.1l-16 96H234.2l16-96H155.1l-16 96H74.2l16-96H16 3.1l10.7-64H16h84.9l21.3-128H48 35.1l10.7-64H48h84.9l16-96h64.9l-16 96h95.1l16-96zM165.8 320h95.1l21.3-128H187.1L165.8 320z"/></svg>
